img/news__corner-circle.svg

<svg width="141" height="111" viewBox="0 0 141 111" fill="none" xmlns="http://www.w3.org/2000/svg">
<path d="M136 0.936685C116.968 0.940411 98.1494 4.53536 80.7627 11.4891C63.3759 18.4428 47.809 28.6001 35.0709 41.3026C34.7332 41.535 34.4502 41.8253 34.2386 42.1568C33.7122 42.7283 33.2353 43.3354 32.8121 43.9723L24.8473 52.729C24.3832 53.1583 24.0191 53.6664 23.7771 54.2239C8.19588 74.4185 -0.103773 98.425 0.000979495 122.996C0.0244874 147.153 8.02085 170.762 22.9789 190.838C37.937 210.914 59.1853 226.556 84.038 235.786C108.891 245.016 136.232 247.42 162.605 242.694C188.979 237.968 213.2 226.325 232.208 209.235C251.216 192.146 264.158 170.378 269.396 146.683C274.633 122.988 271.933 98.4301 261.636 76.1134C251.339 53.7968 233.908 34.7233 211.546 21.3043C189.183 7.88524 162.893 0.72291 136 0.7229V0.936685ZM136 212.484C118.007 212.356 100.389 207.857 85.0103 199.466C69.6319 191.074 57.0667 179.102 48.6466 164.818C40.2266 150.533 36.2656 134.469 37.1823 118.327C38.0991 102.185 43.8597 86.5658 53.8542 73.1253L62.295 63.9417C62.8746 63.3831 63.3922 62.7749 63.8405 62.1261C75.1334 51.3248 89.2386 43.215 104.887 38.5263C120.535 33.8377 137.235 32.7177 153.486 35.2665C169.736 37.8152 185.026 43.9529 197.979 53.1276C210.933 62.3024 221.144 74.2261 227.694 87.826C234.244 101.426 236.927 116.275 235.502 131.038C234.077 145.801 228.588 160.013 219.53 172.397C210.472 184.781 198.128 194.948 183.609 201.983C169.091 209.018 152.853 212.7 136.357 212.698L136 212.484Z" fill="#00589B" fill-opacity="0.15"/>
<circle cx="136.5" cy="132.5" r="73.5" fill="#00589B" fill-opacity="0.15"/>
</svg>

<svg width="141" height="111" fill="none" xmlns="http://www.w3.org/2000/svg"><path d="M136 .937C116.968.94 98.15 4.535 80.763 11.489S47.809 28.6 35.07 41.303a2.99 2.99 0 00-.832.854 14.641 14.641 0 00-1.427 1.815l-7.965 8.757c-.464.43-.828.937-1.07 1.495C8.196 74.418-.103 98.425.001 122.996c.023 24.157 8.02 47.766 22.978 67.842 14.958 20.076 36.206 35.718 61.059 44.948 24.853 9.23 52.194 11.634 78.567 6.908 26.374-4.726 50.595-16.369 69.603-33.459 19.008-17.089 31.95-38.857 37.188-62.552 5.237-23.695 2.537-48.253-7.76-70.57-10.297-22.316-27.728-41.39-50.09-54.809C189.183 7.885 162.893.723 136 .723v.214zm0 211.547c-17.993-.128-35.611-4.627-50.99-13.018-15.378-8.392-27.943-20.364-36.363-34.648-8.42-14.285-12.381-30.349-11.465-46.491.917-16.142 6.678-31.761 16.672-45.202l8.441-9.183a11.989 11.989 0 001.545-1.816c11.293-10.801 25.399-18.911 41.047-23.6 15.648-4.688 32.348-5.808 48.599-3.26 16.25 2.55 31.54 8.687 44.493 17.862 12.954 9.174 23.165 21.098 29.715 34.698 6.55 13.6 9.233 28.449 7.808 43.212-1.425 14.763-6.914 28.975-15.972 41.359s-21.402 22.551-35.921 29.586c-14.518 7.035-30.756 10.717-47.252 10.715l-.357-.214z" fill="#00589B" fill-opacity=".15"/><circle cx="136.5" cy="132.5" r="73.5" fill="#00589B" fill-opacity=".15"/></svg>
